Numix/24/mimetypes/application-x-riff.svg

<?xml version="1.0" encoding="UTF-8" standalone="no"?>
<svg
   xmlns:dc="http://purl.org/dc/elements/1.1/"
   xmlns:cc="http://creativecommons.org/ns#"
   xmlns:rdf="http://www.w3.org/1999/02/22-rdf-syntax-ns#"
   xmlns:svg="http://www.w3.org/2000/svg"
   xmlns="http://www.w3.org/2000/svg"
   xmlns:sodipodi="http://sodipodi.sourceforge.net/DTD/sodipodi-0.dtd"
   xmlns:inkscape="http://www.inkscape.org/namespaces/inkscape"
   width="24"
   height="24"
   viewBox="0 0 24 24"
   id="svg2"
   version="1.1"
   inkscape:version="0.91 r13725"
   sodipodi:docname="application-riff_24.svg">
  <metadata
     id="metadata14">
    <rdf:RDF>
      <cc:Work
         rdf:about="">
        <dc:format>image/svg+xml</dc:format>
        <dc:type
           rdf:resource="http://purl.org/dc/dcmitype/StillImage" />
        <dc:title></dc:title>
      </cc:Work>
    </rdf:RDF>
  </metadata>
  <defs
     id="defs12" />
  <sodipodi:namedview
     pagecolor="#ffffff"
     bordercolor="#666666"
     borderopacity="1"
     objecttolerance="10"
     gridtolerance="10"
     guidetolerance="10"
     inkscape:pageopacity="0"
     inkscape:pageshadow="2"
     inkscape:window-width="1920"
     inkscape:window-height="1013"
     id="namedview10"
     showgrid="false"
     inkscape:zoom="1"
     inkscape:cx="-52.529373"
     inkscape:cy="28.223901"
     inkscape:window-x="0"
     inkscape:window-y="27"
     inkscape:window-maximized="1"
     inkscape:current-layer="svg2">
    <inkscape:grid
       type="xygrid"
       id="grid2991"
       empspacing="5"
       visible="true"
       enabled="true"
       snapvisiblegridlinesonly="true" />
  </sodipodi:namedview>
  <path
     style="fill:#dcdcdc"
     d="M 5,1 C 4.527343,1 4,1.527344 4,2 l 0,20 c 0,0.445312 0.554687,1 1,1 l 14,0 c 0.445313,0 0.992367,-0.554753 1,-1 L 20,7 14,1 z"
     id="path4"
     inkscape:connector-curvature="0"
     sodipodi:nodetypes="ssssssccs" />
  <path
     style="fill:#000000;fill-opacity:0.19599998"
     d="m 15,7 5,5 0,-5 z"
     id="path6"
     inkscape:connector-curvature="0"
     sodipodi:nodetypes="cccc" />
  <path
     style="fill:#ffffff;fill-opacity:0.39200003"
     d="m 14,1 6,6 -5,0 C 14.554688,7 14,6.445312 14,6 z"
     id="path8"
     inkscape:connector-curvature="0"
     sodipodi:nodetypes="ccssc" />
  <g
     style="fill:#888888"
     id="g8"
     transform="matrix(1.3333333,0,0,1.3333333,1.3333336,3.3330004)">
    <path
       d="M 4,8 5.777344,6.222656 7.554688,8 5.777344,9.777344 Z"
       id="path10"
       inkscape:connector-curvature="0" />
    <path
       d="M 6.222656,5.777344 8,4 9.777344,5.777344 8,7.554688 Z"
       id="path12"
       inkscape:connector-curvature="0" />
    <path
       d="M 8.445312,8 10.222656,6.222656 12,8 10.222656,9.777344 Z"
       id="path14"
       inkscape:connector-curvature="0" />
    <path
       d="M 6.222656,10.222656 8,8.445312 9.777344,10.222656 8,12 Z"
       id="path16"
       inkscape:connector-curvature="0" />
  </g>
</svg>

<svg xmlns="http://www.w3.org/2000/svg" viewBox="0 0 24 24">
 <path d="m 5 1 c -0.473 0 -1 0.527 -1 1 l 0 20 c 0 0.445 0.555 1 1 1 l 14 0 c 0.445 0 0.992 -0.555 1 -1 l 0 -15 -6 -6 z" style="fill:#dcdcdc"/>
 <path d="m 15 7 5 5 0 -5 z" style="fill:#000;fill-opacity:0.196"/>
 <path d="m 14 1 6 6 -5 0 c -0.445 0 -1 -0.555 -1 -1 z" style="fill:#fff;fill-opacity:0.392"/>
 <g transform="matrix(1.3333333,0,0,1.3333333,1.3333336,3.3330004)" style="fill:#888">
  <path d="m 4 8 1.777 -1.777 1.777 1.777 -1.777 1.777"/>
  <path d="m 6.223 5.777 1.777 -1.777 1.777 1.777 -1.777 1.777"/>
  <path d="m 8.445 8 1.777 -1.777 1.777 1.777 -1.777 1.777"/>
  <path d="m 6.223 10.223 1.777 -1.777 1.777 1.777 -1.777 1.777"/>
 </g>
</svg>
